X: 6063
T: Capo Zero
R: reel
M: 4/4
K: Gminor
|:G,A,B,C D2 G2|B2 AG AF C2|A2 GF C2 F2|ABAG AFAd|
G,A,B,C D2 G2|B2 AG AF C2|dcAF AdcA|DBAF G4:|
|:d2 BG DGBG|d2 ga bg d2|c2 AF CFAF|fgag fc A2|
g2 dB G2 B2|d2 ga bg d2|fgag fcAc|FGAF G4:|

